X: 764
T: Riben qiangdao zhen keheng
%%abc-version 2.0
%%abcx-abcm2ps-target-version 5.9.1 (29 Sep 2008)
%%abc-creator hum2abc beta
%%abcx-conversion-date 2013/10/02 07:52:30
%%abc-edited-by Helmut Schaffrath
%%humdrum-veritas 1463340986
%%humdrum-veritas-data 4261913122
%%continueall 1
%%barnumbers 0
L: 1/16
M: 2/4
K: F
c2 c c A2 c2 [I:setbarnb 1]| 
f2 f d c2 A2 | 
d2 d f c2 A2 | 
G A G FG4 | 
G2 G A f2 f d | 
A c A G2< F2 G | 
A2 A A c A G F | 
D2> C2D4 |]  



